X:1
T:# / 1 greitter: es hiedri hut gut 
%%score [ 1 2 3 4 ]
L:1/8
Q:1/4=130
M:2/2
K:F
V:1 treble nm="Midi_70"
V:2 treble-8 nm="Midi_75"
V:3 treble-8 nm="Midi_72"
V:4 bass nm="Midi_71"
V:1
 z2"^Es hiedri hut gut" F2 F3 E | F4 A4 | B3 B A4 | A4 F3 F | %4
w: Es hie- dri|hut gut|Sche- dri Schäf-|fer, Val- dri-|
w: Was fun- dri|fand er|bei dem We-|ge, Val- dri-|
"^Matthias Greitter""^(ca 1495-1550)" B2 F4 A2 |[M:2/2] F3 F B2 B4 | A2 D3 E | F3 G A3 F | %8
w: dum, vor dem|Schal- dri- dum Holz,|er hie- dri,|hie- dri, hie- dri|
w: dum, vor dem|Schal- dri- dum stan,|ein Ju- dri,|Ju- dri, Ju- dri,|
 E2 F3 G A2 | F4 E3 F | F2 C3 C F2 | C2 E4 C3 | C F2 C3 E | F2 D2 D2 F3 x19 | F D2 C16 | %15
w: hut der * Läm-|mer, Val- dri-|dum, Schal- dri- dum,|vor dem Val-|dri- dum, Schal- dri-|dum, vor dem Schal-|~dri- dum Holz.|
w: Ju- dri * Jung-|frau Val- dri-|dum, Schal- dri- dum,|bei dem Val-|dri- dum, Schal- dri-|dum, bei dem Schal-|dri- dum stan.|
V:2
 z2 c2 c3 c | c4 f4 | f3 f f4 | f4 d3 d | d2 d4 f2 |[M:2/2][K:treble-8] d3 d d2 d4 | f2 B3 B | %7
w: Es hie- dri|hut gut|Sche- dri Schäf-|fer, Val- dri-|dum, vor dem|Schal- dri- dum Holz,|er hie- dri,|
w: Was fun- dri|fand er|bei dem We-|ge, Val- dri-|dum, vor dem|Schal- dri- dum stan,|ein Ju- dri,|
 A4 A3 B | c2 A2 d2 c2 | d4 c3 d | c2 A3 A A2 | A2 c4 A3 | A A2 A3 c | c2 B2 B2 A3 x19 | A B2 A16 | %15
w: hie- dri *|hut der Lämm *|mer,- Val- dri-|dum, Schal- dri- dum,|vor dem Val|dri dum, Schal- dri|dum, vor dem Schal|dri dum Holz.|
w: Ju- dri, *|Ju- dri Jung- *|frau, Val- dri-|dum, Schal- dri- dum,|bei dem Val-|dri- dum, Schal- dri-|dum, bei dem Schal-|dri- dum stan.|
V:3
 z2 F2 F3 C | F4 c4 | d3 B c4 | c4 B3 B | F2 B4 c2 |[M:2/2][K:treble-8] B3 B F2 G4 | A2 F3 C | %7
w: Es hie- dri|hut gut|Sche- dri Schäf-|fer, Val- dri-|dum, vor dem|Schal- dri- dum Holz,|er hie- dri,|
w: Was fun- dri|fand er|bei dem We-|ge, Val- dri-|dum, vor dem|Schal- dri- dum stan,|ein Ju- dri,|
 F4 F4 | G2 F2 A4 | B4 G3 B | A2 F3 F C2 | F2 G4 F3 | F C2 F3 G | A2 (F24 x2) | x19 | %15
w: hie- dri,|hut ~der Läm-|mer, Val- dri-|dum, Schal- dri- dum,|vor dem Val-|dri- dum, Schal- dri-|dum Holz||
w: Ju- dri,|Ju- dri Jung-|frau, Val- dri-|dum, Schal- dri- dum,|bei dem Val-|dri- dum, Schal- dri-|dum stan.||
V:4
 z2 F,2 A,3 G, | F,4 F,4 | B,,3 B,, F,4 | F,4 B,,3 B,, | B,,2 B,,4 F,2 | %5
w: Es hie- dri|hut gut|Sche- dri Schäf-|fer, Val- dri-|dum, vor dem|
w: Was fun- dri|fand er|bei dem We-|ge, Val- dri-|dum, vor dem|
[M:2/2] B,,3 B,, B,,2 G,,4 | F,,2 B,,3 C, | D,4 D,4 | C,2 D,3 E, F,2 | B,,4 C,3 B,, | %10
w: Schal- dri- dum Holz,|er hie- dri,|hie- dri|hut der * Lam-|mer, Val- dri|
w: Schal- dri- dum stan,|ein Ju- dri,|Ju- dri,|Ju- dri * Jung-|frau, Val- dri|
 F,,2 F,,3 F,, F,,2 | F,,2 C,4 F,,3 | F,, F,,2 F,,3 C, | F,,2 B,,2 B,,2 D,3 x19 | D, B,,2 F,,16 | %15
w: dum, Schal- dri- dum,|vor dem Val-|dri- dum, Schal- dri-|dum, vor dem Schal-|dri- dum Holz.|
w: dum, Schal- dri- dum,|bei dem Val-|dri- dum, Schal- dri-|dum, bei dem Schal-|dri- dum stan.|

